X: 41093
T: Trip To Peterswell, The
R: reel
M: 4/4
K: Dmajor
d2 fd BAFA|BdAF GFEF|D2 FA BAFA|d2 de fe e2|
d2 fd BAFA|BdAF GFEF|DEFA BdAF|1 GBEG FD D2:|2 GFEG FD D2||
a2 af gfef|d2 fd BdAF|D2 FA BAFA|d2 de fe e2|
fa a2 ge e2|d2 fd BdAF|DEFA BdAF|1 GBEG FD D2:|2 GFEG FD D2||
dfaf bfaf|dfaf ge e2|d2 fd BAFA|BdAF FE E2|
dfaf bfaf|dfaf ge e2|d2 fd BAFA|BdAG FD D2|
dfaf bfaf|dfaf ge e2|d2 fd BAFA|BdAF FE E2|
d2 fd BAFA|BdAF GFEF|DEFA BdAF|GBEG FD D2||

